X: 10201
M: C
L: 1/16
K: Bb
|: (Bcde) |\
f4f3f {ga}b4a3g | f2d2 g3e (e2d2)(c2B2) |\
f4f3f g3=eg3b | a3bg3a f4d3_e |\
f3g/f/ d2z2 e3f/e/ c2z2 | d2B2G2c2 (B2A2)(G2F2) |\


